X:110
T:Trotting March Of Russia Caveltry. JBs.110
S:Jas.Blackshaw MS, 1837, N.Shropshire
A:North Shropshire
Z:T. Weatherall 2006
M:2/4
L:1/8
Q:1/4=130
R:March
K:F
c|fefg|agab|g^fag|fcfc|fefg|afba|g^fag|f2z:|!
|:c|b2b2|a2a2|gcde|gdAF|b2b2|a2a2|câ€™cde|f2z:|!
|:B/c/|ccâ€™ef|de/f/ gf|edâ€™ câ€™/b/a/g/|g^fge|!
ccâ€™ef|de/f/ g/a/b/câ€™/|dâ€™e f/e/d/c/|fa f:|

